packages/foundations/assets/icons/functional/images/human/restricted_mobility_toilet.svg

<svg xmlns="http://www.w3.org/2000/svg" width="32" height="32" fill="none"><path fill="#1A1C1F" fill-rule="evenodd" d="M24.89 3.597c-1.166.334-1.888 1.263-2.15 2.766-.12.692-.078 2.131.081 2.73.405 1.534 1.427 2.374 2.887 2.374.817 0 1.751-.228 2.022-.493.41-.401.314-1.062-.206-1.413-.228-.154-.396-.151-.99.013-.764.211-1.355.151-1.638-.168-.325-.366-.505-1.232-.451-2.176.06-1.058.288-1.59.793-1.849.28-.143.856-.137 1.257.014.631.237.982.181 1.276-.204.129-.17.149-.244.149-.557 0-.339-.011-.373-.182-.549-.125-.129-.325-.241-.64-.358-.422-.158-.517-.172-1.205-.187-.518-.011-.825.006-1.003.057m-10.651.096c-.246.168-.376.361-.406.605-.033.258 1.578 6.585 1.73 6.795.124.172.519.374.73.374.272 0 .626-.213.753-.454.062-.117.302-.891.533-1.72.232-.828.433-1.506.448-1.506.014 0 .228.71.475 1.578s.499 1.653.561 1.745c.348.517 1.281.416 1.517-.163.139-.342 1.672-6.353 1.671-6.553-.002-.473-.31-.774-.83-.812-.377-.027-.62.077-.778.334-.061.098-.254.878-.482 1.95-.332 1.552-.428 1.955-.428 1.794s-.87-3.652-.935-3.751c-.291-.444-1.153-.453-1.465-.015-.065.092-.27.831-.545 1.968-.274 1.133-.455 1.786-.478 1.727-.021-.053-.197-.84-.391-1.749-.195-.909-.394-1.737-.443-1.839-.136-.283-.391-.428-.756-.428-.228 0-.349.031-.481.12M8.905 8.612c-.358.115-.796.445-1.026.774-.276.396-.378.769-.347 1.276.032.545.212.918.628 1.303.42.388.789.533 1.36.533.604 0 .968-.15 1.391-.573.432-.432.577-.789.579-1.418.001-.4-.019-.496-.168-.812a2.1 2.1 0 0 0-.959-.983c-.368-.179-1.062-.227-1.458-.1m-.828 6.027c-.386.194-.53.435-.53.885 0 .321.017.381.163.564.251.314.45.391 1.01.394.563.003.913.061 1.022.17.043.043.426 1.252.851 2.687s.807 2.66.849 2.724.164.184.273.267l.197.15 1.956.015 1.956.015.922 2.145c.507 1.18.976 2.253 1.043 2.385.285.564.811.777 1.333.54.423-.192.681-.683.565-1.071-.031-.104-.563-1.389-1.182-2.856-.722-1.711-1.176-2.721-1.268-2.82-.275-.293-.326-.3-2.347-.3h-1.861l-.282-.946a83 83 0 0 0-.306-1.011c-.018-.05.354-.068 1.576-.08l1.6-.016.205-.163c.112-.09.26-.27.328-.4a.95.95 0 0 0-.353-1.234c-.194-.121-.23-.123-2.088-.15l-1.891-.026-.062-.216a2.39 2.39 0 0 0-1.186-1.455c-.431-.23-.918-.327-1.64-.328-.522-.001-.619.014-.853.131m-2.29 3.967c-.566.258-1.289 1.452-1.613 2.665-.122.456-.138.618-.138 1.396 0 .775.016.94.137 1.39.295 1.104.799 1.995 1.554 2.747 2.011 2.004 5.047 2.271 7.461.656.443-.296 1.376-1.244 1.522-1.546.064-.133.116-.323.115-.424-.002-.412-.334-.843-.733-.954-.485-.135-.737-.02-1.291.586-.906.992-1.94 1.435-3.196 1.37-.999-.052-1.743-.386-2.458-1.104-.77-.772-1.12-1.616-1.12-2.695 0-.864.267-1.68.763-2.33.349-.457.427-.702.346-1.084-.093-.435-.534-.774-1.003-.771a1.1 1.1 0 0 0-.346.098"/></svg>

<svg width="32" height="32" viewBox="0 0 32 32" fill="none" xmlns="http://www.w3.org/2000/svg"><path d="M24.890 3.597 C 23.724 3.931,23.002 4.860,22.740 6.363 C 22.620 7.055,22.662 8.494,22.821 9.093 C 23.226 10.627,24.248 11.467,25.708 11.467 C 26.525 11.467,27.459 11.239,27.730 10.974 C 28.140 10.573,28.044 9.912,27.524 9.561 C 27.296 9.407,27.128 9.410,26.534 9.574 C 25.770 9.785,25.179 9.725,24.896 9.406 C 24.571 9.040,24.391 8.174,24.445 7.230 C 24.505 6.172,24.733 5.640,25.238 5.381 C 25.518 5.238,26.094 5.244,26.495 5.395 C 27.126 5.632,27.477 5.576,27.771 5.191 C 27.900 5.021,27.920 4.947,27.920 4.634 C 27.920 4.295,27.909 4.261,27.738 4.085 C 27.613 3.956,27.413 3.844,27.098 3.727 C 26.676 3.569,26.581 3.555,25.893 3.540 C 25.375 3.529,25.068 3.546,24.890 3.597 M14.239 3.693 C 13.993 3.861,13.863 4.054,13.833 4.298 C 13.800 4.556,15.411 10.883,15.563 11.093 C 15.687 11.265,16.082 11.467,16.293 11.467 C 16.565 11.467,16.919 11.254,17.046 11.013 C 17.108 10.896,17.348 10.122,17.579 9.293 C 17.811 8.465,18.012 7.787,18.027 7.787 C 18.041 7.787,18.255 8.497,18.502 9.365 C 18.749 10.233,19.001 11.018,19.063 11.110 C 19.411 11.627,20.344 11.526,20.580 10.947 C 20.719 10.605,22.252 4.594,22.251 4.394 C 22.249 3.921,21.941 3.620,21.421 3.582 C 21.044 3.555,20.801 3.659,20.643 3.916 C 20.582 4.014,20.389 4.794,20.161 5.866 C 19.829 7.418,19.733 7.821,19.733 7.660 C 19.733 7.499,18.863 4.008,18.798 3.909 C 18.507 3.465,17.645 3.456,17.333 3.894 C 17.268 3.986,17.063 4.725,16.788 5.862 C 16.514 6.995,16.333 7.648,16.310 7.589 C 16.289 7.536,16.113 6.749,15.919 5.840 C 15.724 4.931,15.525 4.103,15.476 4.001 C 15.340 3.718,15.085 3.573,14.720 3.573 C 14.492 3.573,14.371 3.604,14.239 3.693 M8.905 8.612 C 8.547 8.727,8.109 9.057,7.879 9.386 C 7.603 9.782,7.501 10.155,7.532 10.662 C 7.564 11.207,7.744 11.580,8.160 11.965 C 8.580 12.353,8.949 12.498,9.520 12.498 C 10.124 12.498,10.488 12.348,10.911 11.925 C 11.343 11.493,11.488 11.136,11.490 10.507 C 11.491 10.107,11.471 10.011,11.322 9.695 C 11.120 9.266,10.779 8.916,10.363 8.712 C 9.995 8.533,9.301 8.485,8.905 8.612 M8.077 14.639 C 7.691 14.833,7.547 15.074,7.547 15.524 C 7.547 15.845,7.564 15.905,7.710 16.088 C 7.961 16.402,8.160 16.479,8.720 16.482 C 9.283 16.485,9.633 16.543,9.742 16.652 C 9.785 16.695,10.168 17.904,10.593 19.339 C 11.018 20.773,11.400 21.999,11.442 22.063 C 11.484 22.127,11.606 22.247,11.715 22.330 L 11.912 22.480 13.868 22.495 L 15.824 22.510 16.746 24.655 C 17.253 25.835,17.722 26.908,17.789 27.040 C 18.074 27.604,18.600 27.817,19.122 27.580 C 19.545 27.388,19.803 26.897,19.687 26.509 C 19.656 26.405,19.124 25.120,18.505 23.653 C 17.783 21.942,17.329 20.932,17.237 20.833 C 16.962 20.540,16.911 20.533,14.890 20.533 L 13.029 20.533 12.747 19.587 C 12.591 19.066,12.454 18.611,12.441 18.576 C 12.423 18.526,12.795 18.508,14.017 18.496 L 15.617 18.480 15.822 18.317 C 15.934 18.227,16.082 18.047,16.150 17.917 C 16.373 17.490,16.217 16.944,15.797 16.683 C 15.603 16.562,15.567 16.560,13.709 16.533 L 11.818 16.507 11.756 16.291 C 11.574 15.662,11.155 15.148,10.570 14.836 C 10.139 14.606,9.652 14.509,8.930 14.508 C 8.408 14.507,8.311 14.522,8.077 14.639 M5.787 18.606 C 5.221 18.864,4.498 20.058,4.174 21.271 C 4.052 21.727,4.036 21.889,4.036 22.667 C 4.036 23.442,4.052 23.607,4.173 24.057 C 4.468 25.161,4.972 26.052,5.727 26.804 C 7.738 28.808,10.774 29.075,13.188 27.460 C 13.631 27.164,14.564 26.216,14.710 25.914 C 14.774 25.781,14.826 25.591,14.825 25.490 C 14.823 25.078,14.491 24.647,14.092 24.536 C 13.607 24.401,13.355 24.516,12.801 25.122 C 11.895 26.114,10.861 26.557,9.605 26.492 C 8.606 26.440,7.862 26.106,7.147 25.388 C 6.377 24.616,6.027 23.772,6.027 22.693 C 6.027 21.829,6.294 21.013,6.790 20.363 C 7.139 19.906,7.217 19.661,7.136 19.279 C 7.043 18.844,6.602 18.505,6.133 18.508 C 6.060 18.509,5.904 18.553,5.787 18.606 " fill="#1A1C1F" stroke="none" fill-rule="evenodd"></path></svg>
